Hatter-kde/actions/22/edit-table-insert-column-right.svg

<?xml version="1.0" encoding="UTF-8"?>
<svg viewBox="0 0 22 22" xmlns="http://www.w3.org/2000/svg">
 <defs id="defs3051">
  <style id="current-color-scheme" type="text/css">.ColorScheme-Text {
        color:#363636;
      }
      .ColorScheme-Highlight {
        color:#3daee9;
      }</style>
 </defs>
 <path class="ColorScheme-Text" d="m3 3v1 15h1 9v-1h-4v-2h4v-1h-4v-2h4 6v-1h-6-4v-2h4v-1h-4v-2h4v-1h-4v-1-1h4 6v-1h-6-10zm1 1h4v1 1h-1-3v-2zm0 3h3 1v2h-4v-2zm0 3h4v2h-4v-2zm0 3h4v2h-1-3v-2zm10 1v5l5-2.5-5-2.5zm-10 2h3 1v1.0996 0.90039h-4v-2z" fill="currentColor"/>
 <path class="ColorScheme-Highlight" d="m13 3v1 5.293 2.707 1h6v-1-8-1h-6zm1 1h4v0.29297l-4 4v-4.293zm4 1.707v2.5859l-3.707 3.707h-0.29297v-2.293l4-4zm0 4v2.293h-2.293l2.293-2.293z" fill="currentColor"/>
</svg>

<svg xmlns="http://www.w3.org/2000/svg" viewBox="0 0 22 22">
  <defs id="defs3051">
    <style type="text/css" id="current-color-scheme">
      .ColorScheme-Text {
        color:#363636;
      }
      .ColorScheme-Highlight {
        color:#3daee9;
      }
      </style>
  </defs>
 <path 
     style="fill:currentColor;fill-opacity:1;stroke:none" 
     d="M 3 3 L 3 4 L 3 19 L 4 19 L 13 19 L 13 18 L 9 18 L 9 16 L 13 16 L 13 15 L 9 15 L 9 13 L 13 13 L 19 13 L 19 12 L 13 12 L 9 12 L 9 10 L 13 10 L 13 9 L 9 9 L 9 7 L 13 7 L 13 6 L 9 6 L 9 5 L 9 4 L 13 4 L 19 4 L 19 3 L 13 3 L 3 3 z M 4 4 L 8 4 L 8 5 L 8 6 L 7 6 L 4 6 L 4 4 z M 4 7 L 7 7 L 8 7 L 8 9 L 4 9 L 4 7 z M 4 10 L 8 10 L 8 12 L 4 12 L 4 10 z M 4 13 L 8 13 L 8 15 L 7 15 L 4 15 L 4 13 z M 14 14 L 14 19 L 19 16.5 L 14 14 z M 4 16 L 7 16 L 8 16 L 8 17.099609 L 8 18 L 4 18 L 4 16 z "
     class="ColorScheme-Text"
     />
 <path 
     style="fill:currentColor;fill-opacity:1;stroke:none" 
     d="M 13 3 L 13 4 L 13 9.2929688 L 13 12 L 13 13 L 19 13 L 19 12 L 19 4 L 19 3 L 13 3 z M 14 4 L 18 4 L 18 4.2929688 L 14 8.2929688 L 14 4 z M 18 5.7070312 L 18 8.2929688 L 14.292969 12 L 14 12 L 14 9.7070312 L 18 5.7070312 z M 18 9.7070312 L 18 12 L 15.707031 12 L 18 9.7070312 z "
     class="ColorScheme-Highlight"
     />
</svg>
